X:0381
T:Braes of Balwhedar.
M:C
L:1/8
Q:1/4=120
I: :: ||
Z:Jack Campin * www.campin.me.uk * 2009
K:G
d|B/c/d Gd B2    Bd|eGdG BAAd|(B/c/d) Gd B2    Bd|e>fgd B/B/B B:|
d|e>fgd    B/B/B ba|gedB dAAd| e>fgd     B/B/B ba|gfgd  B/B/B B
d|e>fgd    B/B/B ba|gedB dAAB| GEEF      G>ABd   |e>fgd B/B/B B|]
<end>
<start>
